X:7
T:Bedfordshire Clanger
M:6/8
L:1/8
C:Taz Tarry
S:Copyright, B.Tarry, 24th. February 1992
R:Morris Jig
K:G
Q:3/8=90
P:A
|:D|G2GB2B|c>Bca2g|f>ed A>Bc|d>BG F>ED|
G2GB2B|c>Bca2g|f>ed A>B^c|d3 d2:|
P:B
|:D|G>Bc d>BG|D>AB c>AF|D>EF A>Bc|d>BG F>ED|
G>Bc d>BG|D>AB c>AF|D>EF A>FD|G3G2:|
P:C  "Note: If played for Morris and the Morris dance doesn't finish on a B part, play C Part instead of A part to finish"
D|G2GB2B|c>Bca2g|f>ed A>Bc|d>BG F>ED|
G2GB2B|c>Bca2g|f>ed D>EF|G3 G2||

